X: 6028
T: Cap And Bells
R: reel
M: 4/4
K: Dmajor
dF~F2 ADFA|dfef dAFA|BG~G2 Bcde|~f3e dcBc|
dF~F2 ADFA|dfef dcBA|~G3A (3Bcd eg|1 fdec Adfe:|2 fdec Addg||
|:fa~a2 afdf|bagf gfed|(3Bcd ef gfed|Beba agfe|
fa~a2 fade|fdef dcBA|~G3A (3Bcd eg|1 fdec Addg:|2 fdec Adfe||

